X: 14
T: Charlie Hunter's Jig
I: Charlie Hunter's Jig	J-36	D	jig
C: Bobby MacLeod
M: 6/8
R: jig
K: D
"D"DFA "G"GBd| "D"Adf a2g| fed "Bm"Bcd| "A7"ecA GFE|
"D"DFA "G"GBd| "D"Adf a2g| fef "A7"gec| "D"edc d3:|
|:f/g/| "D"afd dcd| "G"BGG G2F| "E7"E^GB e2d| "A"cBA "A7"A2a/g/|
      "D"fdA "D7"FDF| "G"GBd g2g| "D"fef "A7"gec| "D"edc d2 :|
%%text Roaring Jelly  J-36

